X:1496
T:Kiss the Bride
R:reel
N:"collected from F. O'Neill"
B:"O'Neill's Dance Music of Ireland, 1496"
T: pog an .brideog.
Z:transcribed by John B. Walsh, 8/22/96
M:C|
L:1/8
K:G
D2|GBAG FGAc|BGBd g2 (dg)|ecAG FGAc|1 BGAF GFED:|2 BGAF G2||
d2|g2 (a/g/f/g/)a2 (b/a/^g/a/)|bagf g2 (dg)|ecAG FGAc|BGAF GFED|
g2 (a/g/f/g/)a2 (b/a/^g/a/)|bagf g2 (dg)|ecAG FGAc|BGAF G2||


